**kern
*ICvox
*E:
*M4/4
*clefG2
1r
=1
*>Letter>A
*>Label>Intro
0.55
=2
0.68
=3
0.81
=4
0.95
=5
*>Letter>B
*>Label>Verse
8.11
8.13
8.14
8.16
=6
8.18
8.19
8.21
8.23
=7
8.24
8.28
8.29
8.29
=8
8.31
8.33
8.35
=9
8.38
8.4
8.41
8.41
8.42
=10
8.45
8.46
8.47
8.48
8.5
=11
8.52
8.53
8.54
8.55
8.57
=12
8.58
8.6
8.62
=13
*>Letter>C
*>Label>Bridge
22.82
22.86
22.87
22.89
22.92
22.94
=14
22.96
22.97
23.01
23.03
23.04
=15
23.09
23.13
23.14
23.16
23.18
23.2
=16
23.23
23.28
23.3
23.31
=17
30.17
30.21
30.22
30.24
30.26
30.29
=18
30.31
30.33
30.36
30.38
30.4
30.41
=19
30.45
30.48
30.51
30.55
30.57
=20
30.58
30.62
30.65
30.69
30.7
=21
*>Letter>D
*>Label>Chorus
37.49
37.51
37.52
37.56
=22
37.62
37.67
16r
37.68
37.69
37.7
37.72
37.73
37.75
[16g#
=23
37.76
37.77
37.82
4e]
37.86
37.89
=24
4.r
37.94
16r
37.95
37.96
37.97
37.98
38
8f#
38.02
16f#
=25
44.99
45
45.01
45.02
45.04
[8d#
45.06
45.09
=26
45.13
45.18
8a
45.2
45.22
45.24
6f#
45.26
=27
4.a
45.31
16g#
45.32
45.33
45.36
45.38
=28
45.4
45.43
45.47
4g#
45.5
45.53
=29
*>Letter>B
*>Label>Verse
52.41
52.44
52.45
52.46
52.47
=30
52.47
52.49
52.5
52.51
52.52
52.53
=31
52.54
52.57
52.57
52.58
52.59
=32
52.61
52.62
52.64
=33
52.67
52.69
52.7
52.71
52.72
=34
52.74
52.76
52.77
52.77
52.78
=35
52.81
52.83
52.84
52.85
52.86
=36
52.88
52.89
52.91
=37
*>Letter>C
*>Label>Bridge
67.4
67.45
67.46
67.48
67.5
67.51
=38
67.53
67.55
67.58
67.6
67.61
=39
67.66
67.71
67.74
67.76
67.79
=40
67.8
67.81
67.85
67.86
67.88
=41
74.88
74.92
74.93
74.95
74.97
75
=42
75.02
75.04
75.07
75.09
75.1
75.12
=43
75.15
75.19
75.22
75.24
75.27
=44
75.29
75.31
75.32
75.36
75.39
=45
*>Letter>D
*>Label>Chorus
82.23
82.24
82.29
2r
=46
82.36
82.41
16r
82.42
82.42
82.43
82.46
82.47
82.48
[16g#
=47
82.49
82.51
82.56
4.e]
82.61
=48
82.62
82.67
16r
82.68
82.69
82.7
82.71
82.73
8f#
82.74
16f#
=49
89.85
89.86
89.86
89.87
89.89
16e
89.9
89.91
89.95
=50
89.98
90.03
8a
90.05
90.07
90.09
6f#
90.11
=51
4.a
90.16
16g#
90.17
90.18
90.21
90.23
=52
90.25
90.28
90.31
4g#
90.35
90.36
90.38
=53
*>Letter>B
*>Label>Solo
97.35
97.38
=54
97.41
=55
97.48
=56
97.55
=57
97.61
=58
97.68
=59
97.75
=60
97.81
97.84
97.85
97.85
97.87
=61
*>Letter>D
*>Label>Chorus
112.39
112.4
112.42
112.44
112.45
=62
112.52
112.57
16r
112.58
112.59
112.59
112.62
112.63
112.64
[16g#
=63
112.65
112.67
112.72
2e]
112.78
=64
4.r
112.83
16r
112.84
112.85
112.86
112.87
112.89
8f#
112.91
16f#
=65
120
120.01
120.01
120.02
120.04
16e
120.05
120.06
=66
120.13
120.18
8a
120.2
120.22
120.24
6f#
120.27
=67
4.a
120.32
16g#
120.32
120.33
120.37
120.4
=68
4b
120.43
120.47
4g#
120.5
120.53
=69
127.45
=70
127.72
=71
*>Letter>D
*>Label>Chorus
131.22
131.36
.
=72
4.r
131.41
16r
131.42
131.42
131.43
131.46
131.47
131.48
[16g#
=73
131.49
131.51
131.56
2e]
131.63
=74
4.r
131.68
16f#
131.69
131.7
131.71
131.72
131.73
131.75
131.76
=75
138.57
138.59
138.61
138.71
=76
4.r
138.76
16g#
138.77
138.78
138.79
138.83
8a
=77
138.84
138.86
138.88
138.89
138.91
138.93
138.94
138.96
=78
138.98
139.01
139.05
4g#
139.08
139.11
=79
*>Letter>D
*>Label>Chorus
145.99
146.12
.
=80
4e]
146.16
8r
146.17
146.18
146.19
146.21
146.23
146.24
=81
146.26
146.4
.
.
=82
4.r
146.45
[8g#
146.46
146.47
146.49
146.5
146.51
146.53
=83
153.32
153.34
153.35
153.37
153.39
153.42
=84
153.51
153.58
8a
153.61
153.64
153.67
6f#
153.7
=85
4.a
153.77
16g#
153.78
153.8
153.84
153.89
=86
1r
154.08
.
.
.
.
158.62
r;
*-
!!!BillboardChartDate: 1963/09/28, 1963/09/28
!!!BillboardPeak: 2, 2
!!!BillboardWeeksOnChart: 13, 13
!!!COC: The Ronettes
!!!ENC: Nathaniel Condit-Schultz
!!!EST: Awating manual error checking and editing.
!!!OTL: Be My Baby
!!!RDF**chordsym: original McGill chord annotation + (implied pitch class set, with bass pitch in first position)
!!!RDF**harmony: **recip + pitch class of root + harmonic quality
!!!RDF**leadinstrument: original McGill primary instrumentation annotation
!!!RDF**phrase: newline = linebreak in original McGill transcription
!!!RDF**timestamp: McGill audio timestamp in seconds
!!!RDT: 2017/01/12/
!!!SampleActualRank: 3, 3
!!!SampleID#: 120, 903
!!!SampleTargetRank: 1, 3
